dist/assets/main-logo.svg

<svg width="250" height="65" viewBox="0 0 250 65" fill="none" xmlns="http://www.w3.org/2000/svg">
<rect x="0.5" y="0.5" width="249" height="64" stroke="black"  stroke-dashoffset="0" stroke-dasharray="1000"/>
<animate
    attributeName='stroke-opacity'
    dur='5s'
    values="0;1;0;"
    repeatCount="indefinite"
/>
<path id="letterI" d="M31.5935 19.8478L27.8884 19.3596V17.3255H39.6013V19.3596L35.8962 19.8478V45.1522L39.6013 45.5997V47.5525H27.9283V45.5591L31.5935 45.1522V19.8478Z" fill="#FF8686"/>
<path id="letterN"   fill="black"/>
<path  d="M85.184 48C83.8029 48 82.5678 47.878 81.4789 47.6339C80.3899 47.3898 79.1947 47.0643 77.8933 46.6575C77.0965 46.3591 76.4989 46.1964 76.1005 46.1693L76.4192 38.8058H78.969L79.6463 44.0945C80.0978 44.5284 80.8282 44.9217 81.8374 45.2743C82.8733 45.5997 84.0021 45.7625 85.2238 45.7625C87.2424 45.7625 88.7696 45.3014 89.8054 44.3793C90.8678 43.4571 91.399 42.1824 91.399 40.5551C91.399 39.4974 91.1068 38.5888 90.5225 37.8294C89.9648 37.07 89.2078 36.4191 88.2516 35.8766C87.322 35.3342 86.0339 34.6968 84.3872 33.9646C82.8998 33.2865 81.5984 32.5949 80.4829 31.8898C79.3939 31.1846 78.4378 30.2489 77.6144 29.0827C76.8176 27.8893 76.4192 26.4654 76.4192 24.811C76.4192 23.3193 76.8043 21.9904 77.5746 20.8241C78.3714 19.6308 79.5002 18.6951 80.961 18.0171C82.4483 17.339 84.1747 17 86.1401 17C87.3619 17 88.4376 17.0949 89.3672 17.2848C90.3233 17.4746 91.399 17.7323 92.5942 18.0577C93.1254 18.2476 93.5769 18.3696 93.9487 18.4239L93.7097 25.2585H91.2795L90.4827 20.2546C90.2171 19.9834 89.6593 19.7257 88.8094 19.4816C87.9861 19.2375 87.083 19.1155 86.1003 19.1155C84.2677 19.1155 82.8733 19.5087 81.9171 20.2953C80.9875 21.0818 80.5227 22.2209 80.5227 23.7126C80.5227 24.7975 80.8016 25.706 81.3594 26.4383C81.9437 27.1706 82.6608 27.7944 83.5107 28.3097C84.3606 28.825 85.7152 29.5302 87.5744 30.4252C89.3008 31.266 90.7084 32.0254 91.7974 32.7034C92.8863 33.3815 93.8159 34.2765 94.5862 35.3885C95.383 36.4733 95.7814 37.7752 95.7814 39.294C95.7814 40.7314 95.383 42.1146 94.5862 43.4436C93.8159 44.7725 92.6207 45.871 91.0006 46.7388C89.407 47.5796 87.4681 48 85.184 48Z" fill="black"/>
<path d="M102.504 19.8478L99.3968 19.3596V17.3255H104.696C105.652 17.3255 106.595 17.2848 107.524 17.2034C108.958 17.0949 110.313 17.0407 111.588 17.0407C115.439 17.0678 118.161 17.8001 119.755 19.2375C121.349 20.675 122.145 22.8447 122.145 25.7467C122.145 27.9164 121.654 29.8014 120.671 31.4016C119.689 33.0017 118.321 34.2222 116.568 35.063C114.841 35.9038 112.849 36.3241 110.592 36.3241C109.822 36.3241 109.038 36.3106 108.241 36.2835C107.444 36.2292 106.953 36.1885 106.767 36.1614V45.1115L112.225 45.5591V47.5525H99.1976V45.5591L102.504 45.1522V19.8478ZM106.767 33.9239C107.511 34.0595 108.786 34.1273 110.592 34.1273C112.69 34.1273 114.39 33.4764 115.691 32.1745C117.019 30.8727 117.683 28.7437 117.683 25.7874C117.683 23.4549 117.112 21.787 115.97 20.7835C114.828 19.7528 113.049 19.2375 110.632 19.2375C109.782 19.2375 108.879 19.2918 107.923 19.4003C107.338 19.4545 106.953 19.4816 106.767 19.4816V33.9239Z" fill="black"/>
<path d="M129.014 19.8478L125.309 19.3596V17.3255H137.022V19.3596L133.317 19.8478V45.1522L137.022 45.5997V47.5525H125.349V45.5591L129.014 45.1522V19.8478Z" fill="black"/>
<path d="M141.059 45.5591L144.365 45.1522V19.8478L141.258 19.3189V17.3255H146.477C147.221 17.3255 148.23 17.2712 149.505 17.1627C150.833 17.0542 151.869 17 152.612 17C156.517 17 159.292 17.6509 160.939 18.9528C162.612 20.2275 163.449 22.248 163.449 25.0144C163.449 26.9401 162.917 28.703 161.855 30.3031C160.819 31.9033 159.385 32.9882 157.552 33.5577C158.402 34.0188 159.186 34.8189 159.903 35.958C160.647 37.07 161.55 38.6295 162.612 40.6365C163.435 42.1553 164.06 43.2673 164.485 43.9724C164.936 44.6776 165.361 45.0709 165.759 45.1522L167.313 45.5591V47.5525H161.815C161.39 47.5525 160.912 47.0914 160.381 46.1693C159.85 45.22 159.146 43.769 158.269 41.8163C157.313 39.6737 156.477 37.9786 155.76 36.731C155.069 35.4563 154.378 34.6426 153.688 34.29C150.846 34.29 149.159 34.2765 148.628 34.2493V45.1522L152.572 45.5591V47.5525H141.059V45.5591ZM153.369 32.0932C155.069 32.0932 156.41 31.5236 157.393 30.3845C158.376 29.2454 158.867 27.5503 158.867 25.2992C158.867 23.3193 158.362 21.8141 157.353 20.7835C156.37 19.7257 154.657 19.1969 152.214 19.1969C151.364 19.1969 150.514 19.2511 149.664 19.3596C149.133 19.4138 148.788 19.4409 148.628 19.4409V32.0525C149.027 32.0796 149.85 32.0932 151.098 32.0932H153.369Z" fill="black"/>
<path d="M172.417 19.8478L169.15 19.3596V17.3255H189.428L189.986 23.6312H187.715L186.56 19.685L176.68 19.4409V30.9134L183.333 30.7913L183.891 27.4147H186.082V36.7717H183.891L183.333 33.273L176.68 33.1509V45.2743L187.914 44.8675L190.026 39.7415L192.376 40.4738L191.221 47.5525H169.11V45.5591L172.417 45.1522V19.8478Z" fill="black"/>
<path id="letterD" d="M198.367 19.8478L195.26 19.3596V17.3255H200.479C201.302 17.3255 202.484 17.2712 204.024 17.1627C205.565 17.0542 206.72 17 207.49 17C212.43 17 216.096 18.2747 218.486 20.8241C220.903 23.3465 222.112 26.8994 222.112 31.4829C222.112 34.6833 221.487 37.5311 220.239 40.0262C219.017 42.4943 217.291 44.4199 215.06 45.8031C212.829 47.1863 210.266 47.8779 207.371 47.8779C206.733 47.8779 205.644 47.8237 204.104 47.7152C202.51 47.6067 201.315 47.5525 200.518 47.5525H195.06V45.5591L198.367 45.1522V19.8478ZM202.59 45.2743C203.52 45.4912 204.715 45.5997 206.176 45.5997H207.371C209.363 45.5726 211.116 45.0573 212.63 44.0538C214.17 43.0503 215.365 41.5586 216.215 39.5787C217.065 37.5717 217.49 35.1444 217.49 32.2966C217.49 28.0114 216.574 24.7568 214.741 22.5328C212.935 20.3088 210.199 19.1969 206.534 19.1969C205.764 19.1969 204.848 19.2511 203.785 19.3596C203.334 19.4409 202.935 19.4816 202.59 19.4816V45.2743Z" fill="#FF8686"/>
<animate 
    href='#letterD'
    attributeType='XML'
    attributeName='fill'
    dur='2s'
    from='black'
    to="#FF8686"
/>
<animate 
    href='#letterI'
    attributeType='XML'
    attributeName='fill'
    dur='2s'
    from='black'
    to="#FF8686"
/>
<animate 
    href='#letterN'
    attributeType='XML'
    attributeName='d'
    dur='5s'
    values="
        M46.9845 19.8478L43.7973 19.3596V17.3255H51.2075L64.4741 37.1785L66.7052 41.4908V19.8478L63.2391 19.3596V17.3255H72.6413V19.3596L69.4541 19.8478V47.5525H66.3068L52.7612 27.252L49.6936 21.8819V45.1522L53.4783 45.5591V47.5525H43.7973V45.5591L46.9845 45.1115V19.8478Z;

        M46.9845 19.8478L43.7973 19.3596V11.3255H51.2075L64.4741 37.1785L66.7052 41.4908V19.8478L63.2391 19.3596V11.3255H72.6413V19.3596L69.4541 19.8478V47.5525H66.3068L52.7612 27.252L49.6936 21.8819V45.1522L53.4783 45.5591V47.5525H43.7973V45.5591L46.9845 45.1115V19.8478Z;

        M46.9845 19.8478L43.7973 19.3596V17.3255H51.2075L64.4741 37.1785L66.7052 41.4908V19.8478L63.2391 19.3596V17.3255H72.6413V19.3596L69.4541 19.8478V47.5525H66.3068L52.7612 27.252L49.6936 21.8819V45.1522L53.4783 45.5591V47.5525H43.7973V45.5591L46.9845 45.1115V19.8478Z;
        "
    repeatCount="indefinite"
    
/>

</svg>

<svg width="250" height="65" fill="none" xmlns="http://www.w3.org/2000/svg"><path stroke="#000" stroke-dasharray="1000" d="M.5.5h249v64H.5z"/><animate attributeName="stroke-opacity" dur="5s" values="0;1;0;" repeatCount="indefinite"/><path d="m31.593 19.848-3.705-.488v-2.034h11.713v2.034l-3.705.488v25.304l3.705.448v1.953H27.928v-1.994l3.665-.407V19.848Z" fill="#FF8686"/><path d="M85.184 48c-1.381 0-2.616-.122-3.705-.366a45.403 45.403 0 0 1-3.586-.977c-.796-.298-1.394-.46-1.793-.488l.32-7.363h2.549l.677 5.288c.452.434 1.182.828 2.191 1.18 1.036.326 2.165.489 3.387.489 2.018 0 3.546-.462 4.581-1.384 1.063-.922 1.594-2.197 1.594-3.824 0-1.058-.292-1.966-.877-2.726-.557-.759-1.314-1.41-2.27-1.952-.93-.543-2.218-1.18-3.865-1.912-1.487-.679-2.789-1.37-3.904-2.075-1.09-.705-2.045-1.641-2.869-2.807-.796-1.194-1.195-2.618-1.195-4.272 0-1.492.385-2.82 1.156-3.987.796-1.193 1.925-2.129 3.386-2.807C82.448 17.34 84.175 17 86.141 17c1.22 0 2.297.095 3.226.285.956.19 2.032.447 3.227.773.531.19.983.312 1.355.366l-.24 6.835h-2.43l-.796-5.004c-.266-.272-.824-.53-1.674-.773-.823-.244-1.726-.366-2.709-.366-1.832 0-3.227.393-4.183 1.18-.93.786-1.394 1.925-1.394 3.417 0 1.084.279 1.993.836 2.725a8.079 8.079 0 0 0 2.152 1.872c.85.515 2.204 1.22 4.063 2.115 1.727.841 3.134 1.6 4.223 2.278a9.462 9.462 0 0 1 2.79 2.685c.796 1.085 1.194 2.387 1.194 3.906 0 1.437-.398 2.82-1.195 4.15-.77 1.328-1.965 2.427-3.585 3.295-1.594.84-3.533 1.261-5.817 1.261Zm17.32-28.152-3.107-.488v-2.034h5.299c.956 0 1.899-.041 2.828-.123a54.003 54.003 0 0 1 4.064-.162c3.851.027 6.573.76 8.167 2.197 1.594 1.437 2.39 3.607 2.39 6.509 0 2.17-.491 4.054-1.474 5.655-.982 1.6-2.35 2.82-4.103 3.661-1.727.84-3.719 1.261-5.976 1.261-.77 0-1.554-.013-2.351-.04a28.256 28.256 0 0 1-1.474-.123v8.95l5.458.448v1.994H99.198v-1.994l3.306-.407V19.848Zm4.263 14.076c.744.136 2.019.203 3.825.203 2.098 0 3.798-.65 5.099-1.953 1.328-1.301 1.992-3.43 1.992-6.387 0-2.332-.571-4-1.713-5.003-1.142-1.031-2.921-1.546-5.338-1.546-.85 0-1.753.054-2.709.162-.585.055-.97.082-1.156.082v14.442Zm22.247-14.076-3.705-.488v-2.034h11.713v2.034l-3.705.488v25.304l3.705.448v1.953h-11.673v-1.994l3.665-.407V19.848Zm12.045 25.712 3.306-.408V19.848l-3.107-.53v-1.992h5.219c.744 0 1.753-.055 3.028-.163 1.328-.109 2.364-.163 3.107-.163 3.905 0 6.68.65 8.327 1.953 1.673 1.274 2.51 3.295 2.51 6.061a9.364 9.364 0 0 1-1.594 5.29c-1.036 1.6-2.47 2.684-4.303 3.254.85.46 1.634 1.26 2.351 2.4.744 1.112 1.647 2.672 2.709 4.678.823 1.52 1.448 2.631 1.873 3.336.451.706.876 1.099 1.274 1.18l1.554.407v1.994h-5.498c-.425 0-.903-.462-1.434-1.384-.531-.949-1.235-2.4-2.112-4.353-.956-2.142-1.792-3.837-2.509-5.085-.691-1.275-1.382-2.088-2.072-2.441-2.842 0-4.529-.014-5.06-.04v10.902l3.944.407v1.994h-11.513v-1.994Zm12.31-13.467c1.7 0 3.041-.57 4.024-1.709.983-1.139 1.474-2.834 1.474-5.085 0-1.98-.505-3.485-1.514-4.515-.983-1.058-2.696-1.587-5.139-1.587-.85 0-1.7.054-2.55.163a13.35 13.35 0 0 1-1.036.08v12.613c.399.027 1.222.04 2.47.04h2.271Zm19.048-12.245-3.267-.488v-2.034h20.278l.558 6.305h-2.271l-1.155-3.946-9.88-.244v11.472l6.653-.122.558-3.376h2.191v9.357h-2.191l-.558-3.499-6.653-.122v12.123l11.234-.407 2.112-5.125 2.35.732-1.155 7.079H169.11v-1.994l3.307-.407V19.848Z" fill="#000"/><path d="m198.367 19.848-3.107-.488v-2.034h5.219c.823 0 2.005-.055 3.545-.163 1.541-.109 2.696-.163 3.466-.163 4.94 0 8.606 1.275 10.996 3.824 2.417 2.522 3.626 6.075 3.626 10.659 0 3.2-.625 6.048-1.873 8.543-1.222 2.468-2.948 4.394-5.179 5.777-2.231 1.383-4.794 2.075-7.689 2.075-.638 0-1.727-.054-3.267-.163-1.594-.108-2.789-.163-3.586-.163h-5.458V45.56l3.307-.407V19.848Zm4.223 25.426c.93.217 2.125.326 3.586.326h1.195c1.992-.027 3.745-.543 5.259-1.546 1.54-1.004 2.735-2.495 3.585-4.475.85-2.007 1.275-4.435 1.275-7.282 0-4.286-.916-7.54-2.749-9.764-1.806-2.224-4.542-3.336-8.207-3.336-.77 0-1.686.054-2.749.163-.451.08-.85.122-1.195.122v25.792Z" fill="#FF8686"/><animate attributeType="XML" attributeName="fill" dur="2s" from="black" to="#FF8686"/><animate attributeType="XML" attributeName="fill" dur="2s" from="black" to="#FF8686"/><animate attributeType="XML" attributeName="d" dur="5s" values="M46.9845 19.8478L43.7973 19.3596V17.3255H51.2075L64.4741 37.1785L66.7052 41.4908V19.8478L63.2391 19.3596V17.3255H72.6413V19.3596L69.4541 19.8478V47.5525H66.3068L52.7612 27.252L49.6936 21.8819V45.1522L53.4783 45.5591V47.5525H43.7973V45.5591L46.9845 45.1115V19.8478Z; M46.9845 19.8478L43.7973 19.3596V11.3255H51.2075L64.4741 37.1785L66.7052 41.4908V19.8478L63.2391 19.3596V11.3255H72.6413V19.3596L69.4541 19.8478V47.5525H66.3068L52.7612 27.252L49.6936 21.8819V45.1522L53.4783 45.5591V47.5525H43.7973V45.5591L46.9845 45.1115V19.8478Z; M46.9845 19.8478L43.7973 19.3596V17.3255H51.2075L64.4741 37.1785L66.7052 41.4908V19.8478L63.2391 19.3596V17.3255H72.6413V19.3596L69.4541 19.8478V47.5525H66.3068L52.7612 27.252L49.6936 21.8819V45.1522L53.4783 45.5591V47.5525H43.7973V45.5591L46.9845 45.1115V19.8478Z;" repeatCount="indefinite"/></svg>
